!!!COM: Honegger, Arthur
!!!OTL: Pacific 231, Movement symphonique no. 1 (Symphonic Movement No. 1)
!!!OMV:
!!!example: 588
!!!work: Hon-18
!!!OMD-full: Modéré
!!!OMD: [Rythmique]
**kern	**dynam	**kern	**dynam	**kern	**dynam	**kern	**dynam	**kern	**dynam	**kern	**dynam	**kern	**dynam	**kern	**dynam	**kern	**dynam	**kern	**dynam	**kern	**dynam	**kern	**dynam	**kern	**dynam	**kern	**dynam	**kern	**dynam	**kern	**dynam
*grp:A	*grp:A	*grp:A	*grp:A	*grp:A	*grp:A	*grp:A	*grp:A	*grp:A	*grp:A	*grp:B	*grp:B	*grp:B	*grp:B	*grp:B	*grp:B	*grp:A	*grp:A	*grp:A	*grp:A	*grp:A	*grp:A	*grp:A	*grp:A	*grp:A	*grp:A	*grp:A	*grp:A	*grp:A	*grp:A	*grp:A	*grp:A
*part16	*	*part15	*	*part14	*	*part13	*	*part12	*	*part11	*part11	*part10	*	*part9	*	*part8	*	*part7	*	*part6	*	*part5	*	*part4	*	*part3	*	*part2	*	*part1	*
*staff16	*	*staff15	*	*staff14	*	*staff13	*	*staff12	*	*staff11	*	*staff10	*	*staff9	*	*staff8	*	*staff7	*	*staff6	*	*staff5	*	*staff4	*	*staff3	*	*staff2	*	*staff1	*
*I"Contrabass	*	*I"Violoncello	*	*I"Viola	*	*I"Violin II	*	*I"Violin I	*	*I"Bass Drum	*	*I"Horns in F III,IV	*	*I"Horns in F I,II	*	*I"Contrabassoon	*	*I"Bassoons	*	*I"Bass Clarinet in Bb	*	*I"Clarinet in Bb II	*	*I"Clarinet in Bb I	*	*I"English Horn	*	*I"Oboes	*	*I"Flutes	*
*I'Cb.	*	*I'Vc.	*	*I'Vla.	*	*I'Vln. II	*	*I'Vln. I	*	*I'B. D.	*	*I'Hn.	*	*I'Hn.	*	*I'Cbsn.	*	*I'Bsn.	*	*I'B. Cl.	*	*I'Cl. II	*	*I'Cl. I	*	*I'C. A.	*	*I'Ob.	*	*I'Fl.	*
*ICstr	*	*ICstr	*	*ICstr	*	*ICstr	*	*ICstr	*	*ICidio	*	*ICbras	*	*ICbras	*	*ICww	*	*ICww	*	*ICww	*	*ICww	*	*ICww	*	*ICww	*	*ICww	*	*ICww	*
*Icbass	*	*Icello	*	*Iviola	*	*Ivioln	*	*Ivioln	*	*Ibdrum	*	*Icor	*	*Icor	*	*Ifag_c	*	*Ifagot	*	*Iclarb	*	*Iclars	*	*Iclars	*	*Icangl	*	*Ioboe	*	*Iflt	*
*	*	*	*	*	*	*	*	*	*	*stria1	*	*	*	*	*	*	*	*	*	*	*	*	*	*	*	*	*	*	*	*	*
*clefF4	*	*clefF4	*	*clefC3	*	*clefG2	*	*clefG2	*	*clefX	*	*clefG2	*	*clefG2	*	*clefF4	*	*clefF4	*	*clefF4	*	*clefG2	*	*clefG2	*	*clefG2	*	*clefG2	*	*clefG2	*
*ITrd7c12	*	*	*	*	*	*	*	*	*	*	*	*ITrd4c7	*	*ITrd4c7	*	*ITrd7c12	*	*	*	*ITrd1c2	*	*ITrd1c2	*	*ITrd1c2	*	*ITrd4c7	*	*	*	*	*
*k[]	*	*k[]	*	*k[]	*	*k[]	*	*k[]	*	*k[]	*	*k[b-]	*	*k[b-]	*	*k[]	*	*k[]	*	*k[b-e-]	*	*k[b-e-]	*	*k[b-e-]	*	*k[b-]	*	*k[]	*	*k[]	*
*	*	*	*	*	*	*	*	*	*	*C:	*	*	*	*	*	*	*	*	*	*	*	*	*	*	*	*	*	*	*	*	*
*M2/2	*	*M2/2	*	*M2/2	*	*M2/2	*	*M2/2	*	*M2/2	*	*M2/2	*	*M2/2	*	*M2/2	*	*M2/2	*	*M2/2	*	*M2/2	*	*M2/2	*	*M2/2	*	*M2/2	*	*M2/2	*
*met(c|)	*	*met(c|)	*	*met(c|)	*	*met(c|)	*	*met(c|)	*	*met(c|)	*	*met(c|)	*	*met(c|)	*	*met(c|)	*	*met(c|)	*	*met(c|)	*	*met(c|)	*	*met(c|)	*	*met(c|)	*	*met(c|)	*	*met(c|)	*
=51	=51	=51	=51	=51	=51	=51	=51	=51	=51	=51	=51	=51	=51	=51	=51	=51	=51	=51	=51	=51	=51	=51	=51	=51	=51	=51	=51	=51	=51	=51	=51
*	*	*	*	*	*	*	*	*	*	*	*	*	*	*	*	*	*	*	*	*	*	*	*	*	*	*	*	*	*	*^	*
*	*	*	*	*	*	*	*	*	*	*	*	*	*	*	*	*	*	*	*	*	*	*tremolo	*	*	*	*	*	*	*	*	*	*
*	*	*	*	*	*	*	*	*	*	*	*	*	*	*	*	*	*	*	*	*	*	*	*	*tremolo	*	*	*	*	*	*	*	*
*	*	*	*	*	*	*	*	*	*	*	*	*	*	*	*	*	*	*	*	*	*	*	*	*	*	*	*	*	*	*tremolo	*	*
!	!	!	!	!	!	!	!	!	!	!	!	!	!	!	!	!	!	!	!	!	!	!	!	!	!	!	!	!	!	!LO:TX:t=[[half]=80]	!	!
!	!LO:DY:ed=brack	!	!LO:DY:ed=brack	!	!LO:DY:ed=brack	!	!LO:DY:ed=brack	!	!LO:DY:ed=brack	!	!LO:DY:ed=brack	!	!LO:DY:ed=brack	!	!LO:DY:ed=brack	!	!LO:DY:ed=brack	!LO:TX:a:t=a 2	!LO:DY:ed=brack	!	!LO:DY:ed=brack	!	!LO:DY:ed=brack	!	!LO:DY:ed=brack	!	!LO:DY:ed=brack	!	!LO:DY:ed=brack	!	!	!LO:DY:ed=brack
!	!	!	!	!	!	!	!	!	!	!	!	!	!	!	!	!	!	!	!	!	!	!	!	!	!	!	!	!	!	!	!	!
1r	f	4An	f	4a-X	f	4A-X	f	4c#X	f	1r	f	1r	f	1r	f	4r	f	4r	f	4r	f	16A-XLL	f	16AnLL	f	4A-X	f	4c#X 4a-X	f	16c#X 16a-XLL	2ryy	f
.	.	.	.	.	.	.	.	.	.	.	.	.	.	.	.	.	.	.	.	.	.	16A-X	.	16A	.	.	.	.	.	16c#X 16a-X	.	.
.	.	.	.	.	.	.	.	.	.	.	.	.	.	.	.	.	.	.	.	.	.	16A-X	.	16A	.	.	.	.	.	16c#X 16a-X	.	.
.	.	.	.	.	.	.	.	.	.	.	.	.	.	.	.	.	.	.	.	.	.	16A-XJJ	.	16AJJ	.	.	.	.	.	16c#X 16a-XJJ	.	.
.	.	4r	.	4r	.	4r	.	4r	.	.	.	.	.	.	.	8GGG-X	.	8G-XL	.	8G-XL	.	4r	.	4r	.	4r	.	4r	.	4r	.	.
.	.	.	.	.	.	.	.	.	.	.	.	.	.	.	.	8r	.	8GG-XJ	.	8G-J	.	.	.	.	.	.	.	.	.	.	.	.
.	.	4r	.	4r	.	4r	.	4r	.	.	.	.	.	.	.	8DDD-X	.	8D-XL	.	8D-XL	.	4r	.	4r	.	4r	.	4r	.	4r	4ryy	.
.	.	.	.	.	.	.	.	.	.	.	.	.	.	.	.	8r	.	8DD-XJ	.	8D-J	.	.	.	.	.	.	.	.	.	.	.	.
.	.	4F	.	4e-X	.	4An	.	4Bn	.	.	.	.	.	.	.	4r	.	4r	.	4r	.	16FLL	.	16AnLL	.	4F	.	4Bn 4e-X	.	16e-XLL	16e-LL	.
.	.	.	.	.	.	.	.	.	.	.	.	.	.	.	.	.	.	.	.	.	.	16F	.	16A	.	.	.	.	.	16e-X	16e-	.
.	.	.	.	.	.	.	.	.	.	.	.	.	.	.	.	.	.	.	.	.	.	16F	.	16A	.	.	.	.	.	16e-X	16e-	.
.	.	.	.	.	.	.	.	.	.	.	.	.	.	.	.	.	.	.	.	.	.	16FJJ	.	16AJJ	.	.	.	.	.	16e-XJJ	16e-JJ	.
*	*	*	*	*	*	*	*	*	*	*	*	*	*	*	*	*	*	*	*	*	*	*	*	*	*	*	*	*	*	*v	*v	*
=52	=52	=52	=52	=52	=52	=52	=52	=52	=52	=52	=52	=52	=52	=52	=52	=52	=52	=52	=52	=52	=52	=52	=52	=52	=52	=52	=52	=52	=52	=52	=52
1r	.	4A-X	.	4en	.	4B-X	.	4d	.	1r	.	1r	.	1r	.	4r	.	4r	.	4r	.	16B-LL	.	16A-XLL	.	4B-	.	4d 4en	.	16d 16enLL	.
.	.	.	.	.	.	.	.	.	.	.	.	.	.	.	.	.	.	.	.	.	.	16B-	.	16A-X	.	.	.	.	.	16d 16en	.
.	.	.	.	.	.	.	.	.	.	.	.	.	.	.	.	.	.	.	.	.	.	16B-	.	16A-X	.	.	.	.	.	16d 16en	.
.	.	.	.	.	.	.	.	.	.	.	.	.	.	.	.	.	.	.	.	.	.	16B-JJ	.	16A-XJJ	.	.	.	.	.	16d 16enJJ	.
.	.	4r	.	4r	.	4r	.	4r	.	.	.	.	.	.	.	8CCC#X	.	8CC#XL	.	8D-XL	.	4r	.	4r	.	4r	.	4r	.	4r	.
.	.	.	.	.	.	.	.	.	.	.	.	.	.	.	.	8r	.	8C#XJ	.	8D-J	.	.	.	.	.	.	.	.	.	.	.
.	.	4r	.	4r	.	4r	.	4r	.	.	.	.	.	.	.	8EEEn	.	8EEnL	.	8F-XL	.	4r	.	4r	.	4r	.	4r	.	4r	.
.	.	.	.	.	.	.	.	.	.	.	.	.	.	.	.	8r	.	8EnJ	.	8F-J	.	.	.	.	.	.	.	.	.	.	.
.	.	4An	.	4g#X	.	4d-X	.	4d#X	.	.	.	.	.	.	.	4r	.	4r	.	4r	.	16B-LL	.	16d-XLL	.	4An	.	4d#X 4g#X	.	16d#X 16g#XLL	.
.	.	.	.	.	.	.	.	.	.	.	.	.	.	.	.	.	.	.	.	.	.	16B-	.	16d-X	.	.	.	.	.	16d#X 16g#X	.
.	.	.	.	.	.	.	.	.	.	.	.	.	.	.	.	.	.	.	.	.	.	16B-	.	16d-X	.	.	.	.	.	16d#X 16g#X	.
.	.	.	.	.	.	.	.	.	.	.	.	.	.	.	.	.	.	.	.	.	.	16B-JJ	.	16d-XJJ	.	.	.	.	.	16d#X 16g#XJJ	.
=53	=53	=53	=53	=53	=53	=53	=53	=53	=53	=53	=53	=53	=53	=53	=53	=53	=53	=53	=53	=53	=53	=53	=53	=53	=53	=53	=53	=53	=53	=53	=53
1r	.	4B	.	4b	.	4c	.	4e	.	1r	.	1r	.	1r	.	4r	.	4r	.	4r	.	16BXLL	.	16cLL	.	4BX	.	4en 4bn	.	16e 16bLL	.
.	.	.	.	.	.	.	.	.	.	.	.	.	.	.	.	.	.	.	.	.	.	16BX	.	16c	.	.	.	.	.	16e 16b	.
.	.	.	.	.	.	.	.	.	.	.	.	.	.	.	.	.	.	.	.	.	.	16BX	.	16c	.	.	.	.	.	16e 16b	.
.	.	.	.	.	.	.	.	.	.	.	.	.	.	.	.	.	.	.	.	.	.	16BXJJ	.	16cJJ	.	.	.	.	.	16e 16bJJ	.
.	.	4r	.	4r	.	4r	.	4r	.	.	.	.	.	.	.	8AAA	.	8AL	.	8AL	.	4r	.	4r	.	4r	.	4r	.	4r	.
.	.	.	.	.	.	.	.	.	.	.	.	.	.	.	.	8r	.	8AAJ	.	8AJ	.	.	.	.	.	.	.	.	.	.	.
.	.	4r	.	4r	.	4r	.	4r	.	.	.	.	.	.	.	8EEE	.	8EL	.	8EXL	.	4r	.	4r	.	4r	.	4r	.	4r	.
.	.	.	.	.	.	.	.	.	.	.	.	.	.	.	.	8r	.	8EEJ	.	8EJ	.	.	.	.	.	.	.	.	.	.	.
.	.	4G#X	.	4f#X	.	4c	.	4dn	.	.	.	.	.	.	.	4r	.	4r	.	4r	.	16G#XLL	.	16cLL	.	4G#X	.	4dn 4f#X	.	16dn 16f#XLL	.
.	.	.	.	.	.	.	.	.	.	.	.	.	.	.	.	.	.	.	.	.	.	16G#X	.	16c	.	.	.	.	.	16dn 16f#X	.
.	.	.	.	.	.	.	.	.	.	.	.	.	.	.	.	.	.	.	.	.	.	16G#X	.	16c	.	.	.	.	.	16dn 16f#X	.
.	.	.	.	.	.	.	.	.	.	.	.	.	.	.	.	.	.	.	.	.	.	16G#XJJ	.	16cJJ	.	.	.	.	.	16dn 16f#XJJ	.
*	*	*	*	*	*	*	*	*	*	*	*	*	*	*	*	*	*	*	*	*	*	*	*	*	*	*	*	*	*	*Xtremolo	*
*	*	*	*	*	*	*	*	*	*	*	*	*	*	*	*	*	*	*	*	*	*	*	*	*Xtremolo	*	*	*	*	*	*	*
*	*	*	*	*	*	*	*	*	*	*	*	*	*	*	*	*	*	*	*	*	*	*Xtremolo	*	*	*	*	*	*	*	*	*
!!LO:REH:a:B:t=4
=54	=54	=54	=54	=54	=54	=54	=54	=54	=54	=54	=54	=54	=54	=54	=54	=54	=54	=54	=54	=54	=54	=54	=54	=54	=54	=54	=54	=54	=54	=54	=54
!	!	!	!	!	!	!	!	!	!	!	!	!LO:TX:b:i:t=marcato	!	!	!	!	!	!	!	!	!	!	!	!	!	!	!	!	!	!	!
!LO:TX:a:t=pizz.	!	!	!	!	!	!	!	!	!	!	!	!LO:TX:a:t=a 2	!	!	!	!	!	!	!	!	!	!	!	!	!	!	!	!	!	!	!
4CC	.	(4.D#X	.	4g	.	4c	.	4Bn	.	1r	.	4c~	.	1r	.	4CC'	.	1r	.	1r	.	(2.An	.	(2.An	.	(2.BX	.	8c 8g	.	8c 8g	.
.	.	.	.	.	.	.	.	.	.	.	.	.	.	.	.	.	.	.	.	.	.	.	.	.	.	.	.	8r	.	8r	.
4GG	.	.	.	4r	.	4r	.	4r	.	.	.	4e-X~	.	.	.	4GG'	.	.	.	.	.	.	.	.	.	.	.	4r	.	4r	.
.	.	8C##X	.	.	.	.	.	.	.	.	.	.	.	.	.	.	.	.	.	.	.	.	.	.	.	.	.	.	.	.	.
4FFF#X	.	4D#)	.	4r	.	4r	.	2r	.	.	.	6g	.	.	.	4FFF#X'	.	.	.	.	.	.	.	.	.	.	.	2r	.	2r	.
.	.	.	.	.	.	.	.	.	.	.	.	6g	.	.	.	.	.	.	.	.	.	.	.	.	.	.	.	.	.	.	.
!	!	!	!	!LO:TX:a:t=pizz.	!	!LO:TX:a:t=pizz.	!	!	!	!	!	!	!	!	!	!	!	!	!	!	!	!	!	!	!	!	!	!	!	!	!
4r	.	4r	.	8A-XL	.	8c#XL	.	.	.	.	.	.	.	.	.	4r	.	.	.	.	.	8A-XL	.	8A-XL	.	8c#XL	.	.	.	.	.
.	.	.	.	.	.	.	.	.	.	.	.	6cc	.	.	.	.	.	.	.	.	.	.	.	.	.	.	.	.	.	.	.
.	.	.	.	8GJ	.	8dJ	.	.	.	.	.	.	.	.	.	.	.	.	.	.	.	8GnJ)	.	8GJ)	.	8dJ)	.	.	.	.	.
=55	=55	=55	=55	=55	=55	=55	=55	=55	=55	=55	=55	=55	=55	=55	=55	=55	=55	=55	=55	=55	=55	=55	=55	=55	=55	=55	=55	=55	=55	=55	=55
4CC	.	(4.D#X	.	4An	.	4Bn	.	1r	.	1r	.	6b-XZ	.	1r	.	4CC'	.	1r	.	1r	.	(2.An	.	(2.An	.	(2.BX	.	1r	.	1r	.
.	.	.	.	.	.	.	.	.	.	.	.	6a	.	.	.	.	.	.	.	.	.	.	.	.	.	.	.	.	.	.	.
4GG	.	.	.	4r	.	4r	.	.	.	.	.	.	.	.	.	4GG'	.	.	.	.	.	.	.	.	.	.	.	.	.	.	.
.	.	.	.	.	.	.	.	.	.	.	.	6g	.	.	.	.	.	.	.	.	.	.	.	.	.	.	.	.	.	.	.
.	.	8C##X	.	.	.	.	.	.	.	.	.	.	.	.	.	.	.	.	.	.	.	.	.	.	.	.	.	.	.	.	.
4FFF#X	.	4D#)	.	4r	.	4r	.	.	.	.	.	4f~	.	.	.	4FFF#X'	.	.	.	.	.	.	.	.	.	.	.	.	.	.	.
4r	.	4r	.	8F#XL	.	8d-XL	.	.	.	.	.	4g~	.	.	.	4r	.	.	.	.	.	8F#XL	.	8F#XL	.	8d-XL	.	.	.	.	.
.	.	.	.	8GJ	.	8cnJ	.	.	.	.	.	.	.	.	.	.	.	.	.	.	.	8GJ)	.	8GJ)	.	8cnJ)	.	.	.	.	.
=56	=56	=56	=56	=56	=56	=56	=56	=56	=56	=56	=56	=56	=56	=56	=56	=56	=56	=56	=56	=56	=56	=56	=56	=56	=56	=56	=56	=56	=56	=56	=56
!	!	!	!	!	!	!	!	!	!	!	!	!	!	!LO:TX:a:t=a 2	!	!	!	!	!	!	!	!	!	!	!	!	!	!	!	!	!
4DD	.	(4.En	.	4A-X	.	4B-X	.	1r	.	1r	.	4dn	.	5dn	.	4DD	.	1r	.	1r	.	(2.A-X	.	(2.A-X	.	(2.B-X	.	1r	.	1r	.
.	.	.	.	.	.	.	.	.	.	.	.	.	.	5en	.	.	.	.	.	.	.	.	.	.	.	.	.	.	.	.	.
4BB-X	.	.	.	4r	.	4r	.	.	.	.	.	4r	.	.	.	4BB-X	.	.	.	.	.	.	.	.	.	.	.	.	.	.	.
.	.	8F#X	.	.	.	.	.	.	.	.	.	.	.	.	.	.	.	.	.	.	.	.	.	.	.	.	.	.	.	.	.
.	.	.	.	.	.	.	.	.	.	.	.	.	.	5g	.	.	.	.	.	.	.	.	.	.	.	.	.	.	.	.	.
4AAA-X	.	4E)	.	4r	.	4r	.	.	.	.	.	2r	.	.	.	4AAA-X	.	.	.	.	.	.	.	.	.	.	.	.	.	.	.
.	.	.	.	.	.	.	.	.	.	.	.	.	.	5f#X	.	.	.	.	.	.	.	.	.	.	.	.	.	.	.	.	.
4r	.	4r	.	8GL	.	8BnL	.	.	.	.	.	.	.	.	.	4r	.	.	.	.	.	8GL	.	8GL	.	8BXL	.	.	.	.	.
.	.	.	.	.	.	.	.	.	.	.	.	.	.	5b-X	.	.	.	.	.	.	.	.	.	.	.	.	.	.	.	.	.
.	.	.	.	8F#XJ	.	8cJ	.	.	.	.	.	.	.	.	.	.	.	.	.	.	.	8F#XJ)	.	8F#XJ)	.	8cJ)	.	.	.	.	.
=57	=57	=57	=57	=57	=57	=57	=57	=57	=57	=57	=57	=57	=57	=57	=57	=57	=57	=57	=57	=57	=57	=57	=57	=57	=57	=57	=57	=57	=57	=57	=57
4DD	.	(4.E	.	4A-X	.	4B-X	.	1r	.	1r	.	1r	.	6a-X	.	4DD	.	1r	.	1r	.	(2.A-X	.	(2.A-X	.	(2.B-X	.	1r	.	1r	.
.	.	.	.	.	.	.	.	.	.	.	.	.	.	6g	.	.	.	.	.	.	.	.	.	.	.	.	.	.	.	.	.
4AAA-X	.	.	.	4r	.	4r	.	.	.	.	.	.	.	.	.	4AAA-X	.	.	.	.	.	.	.	.	.	.	.	.	.	.	.
.	.	.	.	.	.	.	.	.	.	.	.	.	.	6a-	.	.	.	.	.	.	.	.	.	.	.	.	.	.	.	.	.
.	.	8F#X	.	.	.	.	.	.	.	.	.	.	.	.	.	.	.	.	.	.	.	.	.	.	.	.	.	.	.	.	.
4BB-X	.	4E)	.	4r	.	4r	.	.	.	.	.	.	.	6d	.	4BB-X	.	.	.	.	.	.	.	.	.	.	.	.	.	.	.
.	.	.	.	.	.	.	.	.	.	.	.	.	.	6en	.	.	.	.	.	.	.	.	.	.	.	.	.	.	.	.	.
4r	.	4r	.	8GL	.	8d-XL	.	.	.	.	.	.	.	.	.	4r	.	.	.	.	.	8GL	.	8GL	.	8d-XL	.	.	.	.	.
.	.	.	.	.	.	.	.	.	.	.	.	.	.	6f#X	.	.	.	.	.	.	.	.	.	.	.	.	.	.	.	.	.
.	.	.	.	8A-J	.	8cJ	.	.	.	.	.	.	.	.	.	.	.	.	.	.	.	8A-J)	.	8A-J)	.	8cJ)	.	.	.	.	.
=58	=58	=58	=58	=58	=58	=58	=58	=58	=58	=58	=58	=58	=58	=58	=58	=58	=58	=58	=58	=58	=58	=58	=58	=58	=58	=58	=58	=58	=58	=58	=58
4CC	.	(4.E-X	.	4An	.	4Bn	.	1r	.	1r	.	4c	.	4c	.	4CC	.	1r	.	1r	.	(2.An	.	(2.An	.	(2.BX	.	1r	.	1r	.
4GG	.	.	.	4r	.	4r	.	.	.	.	.	4e-X	.	4r	.	4GG	.	.	.	.	.	.	.	.	.	.	.	.	.	.	.
.	.	8D	.	.	.	.	.	.	.	.	.	.	.	.	.	.	.	.	.	.	.	.	.	.	.	.	.	.	.	.	.
4FFF#X	.	4E-)	.	4r	.	4r	.	.	.	.	.	6g	.	2r	.	4FFF#X	.	.	.	.	.	.	.	.	.	.	.	.	.	.	.
.	.	.	.	.	.	.	.	.	.	.	.	6g	.	.	.	.	.	.	.	.	.	.	.	.	.	.	.	.	.	.	.
4r	.	4r	.	8A-XL	.	8c#XL	.	.	.	.	.	.	.	.	.	4r	.	.	.	.	.	8A-XL	.	8A-XL	.	8c#XL	.	.	.	.	.
.	.	.	.	.	.	.	.	.	.	.	.	6cc	.	.	.	.	.	.	.	.	.	.	.	.	.	.	.	.	.	.	.
.	.	.	.	8GJ	.	8dJ	.	.	.	.	.	.	.	.	.	.	.	.	.	.	.	8GJ)	.	8GJ)	.	8dJ)	.	.	.	.	.
=59	=59	=59	=59	=59	=59	=59	=59	=59	=59	=59	=59	=59	=59	=59	=59	=59	=59	=59	=59	=59	=59	=59	=59	=59	=59	=59	=59	=59	=59	=59	=59
4CC	.	(4.E-X	.	4An	.	4Bn	.	1r	.	1r	.	6b-	.	1r	.	4CC	.	1r	.	1r	.	(2.An	.	(2.An	.	(2.BX	.	1r	.	1r	.
.	.	.	.	.	.	.	.	.	.	.	.	6a	.	.	.	.	.	.	.	.	.	.	.	.	.	.	.	.	.	.	.
4FFF#X	.	.	.	4r	.	4r	.	.	.	.	.	.	.	.	.	4FFF#X	.	.	.	.	.	.	.	.	.	.	.	.	.	.	.
.	.	.	.	.	.	.	.	.	.	.	.	6g	.	.	.	.	.	.	.	.	.	.	.	.	.	.	.	.	.	.	.
.	.	8D	.	.	.	.	.	.	.	.	.	.	.	.	.	.	.	.	.	.	.	.	.	.	.	.	.	.	.	.	.
4GG	.	4E-)	.	4r	.	4r	.	.	.	.	.	4fnZ	.	.	.	4GG	.	.	.	.	.	.	.	.	.	.	.	.	.	.	.
4r	.	4r	.	8F#XL	.	8cnL	.	.	.	.	.	4g	.	.	.	4r	.	.	.	.	.	8F#XL	.	8F#XL	.	8cnL	.	.	.	.	.
.	.	.	.	8GJ	.	8B-XJ	.	.	.	.	.	.	.	.	.	.	.	.	.	.	.	8GJ)	.	8GJ)	.	8B-J)	.	.	.	.	.
=60	=60	=60	=60	=60	=60	=60	=60	=60	=60	=60	=60	=60	=60	=60	=60	=60	=60	=60	=60	=60	=60	=60	=60	=60	=60	=60	=60	=60	=60	=60	=60
4BBBn	.	(4.D	.	4G#X	.	4A	.	1r	.	1r	.	4a	.	5an	.	1r	.	4BBn	.	1r	.	(2.A-X	.	(2.A-X	.	(2.A	.	1r	.	1r	.
.	.	.	.	.	.	.	.	.	.	.	.	.	.	5bX	.	.	.	.	.	.	.	.	.	.	.	.	.	.	.	.	.
4AA-X	.	.	.	4r	.	4r	.	.	.	.	.	4r	.	.	.	.	.	4A-X	.	.	.	.	.	.	.	.	.	.	.	.	.
.	.	8E-X	.	.	.	.	.	.	.	.	.	.	.	.	.	.	.	.	.	.	.	.	.	.	.	.	.	.	.	.	.
.	.	.	.	.	.	.	.	.	.	.	.	.	.	5cc	.	.	.	.	.	.	.	.	.	.	.	.	.	.	.	.	.
4FFFn	.	4D)	.	4r	.	4r	.	.	.	.	.	2r	.	.	.	.	.	4FFn	.	.	.	.	.	.	.	.	.	.	.	.	.
.	.	.	.	.	.	.	.	.	.	.	.	.	.	5dd	.	.	.	.	.	.	.	.	.	.	.	.	.	.	.	.	.
4r	.	4r	.	8GnL	.	8A#XL	.	.	.	.	.	.	.	.	.	.	.	4r	.	.	.	8GL	.	8GL	.	8B-L	.	.	.	.	.
.	.	.	.	.	.	.	.	.	.	.	.	.	.	5ee-X	.	.	.	.	.	.	.	.	.	.	.	.	.	.	.	.	.
.	.	.	.	8F#XJ	.	8BJ	.	.	.	.	.	.	.	.	.	.	.	.	.	.	.	8F#XJ)	.	8F#XJ)	.	8c-XJ)	.	.	.	.	.
=61	=61	=61	=61	=61	=61	=61	=61	=61	=61	=61	=61	=61	=61	=61	=61	=61	=61	=61	=61	=61	=61	=61	=61	=61	=61	=61	=61	=61	=61	=61	=61
4BBB	.	(4.D	.	4G#X	.	4An	.	1r	.	1r	.	1r	.	6dd	.	1r	.	4BB	.	1r	.	(2.A-X	.	(2.A-X	.	(2.An	.	1r	.	1r	.
.	.	.	.	.	.	.	.	.	.	.	.	.	.	6a	.	.	.	.	.	.	.	.	.	.	.	.	.	.	.	.	.
4AA-X	.	.	.	4r	.	4r	.	.	.	.	.	.	.	.	.	.	.	4A-X	.	.	.	.	.	.	.	.	.	.	.	.	.
.	.	.	.	.	.	.	.	.	.	.	.	.	.	6bX	.	.	.	.	.	.	.	.	.	.	.	.	.	.	.	.	.
.	.	8E-X	.	.	.	.	.	.	.	.	.	.	.	.	.	.	.	.	.	.	.	.	.	.	.	.	.	.	.	.	.
4BBB	.	4D)	.	4r	.	4r	.	.	.	.	.	.	.	6fn	.	.	.	4BB	.	.	.	.	.	.	.	.	.	.	.	.	.
.	.	.	.	.	.	.	.	.	.	.	.	.	.	6g	.	.	.	.	.	.	.	.	.	.	.	.	.	.	.	.	.
!	!	!	!	!LO:TX:a:t=arco	!	!	!	!	!	!	!	!	!	!	!	!	!	!	!	!	!	!	!	!	!	!	!	!	!	!	!
4FFF	.	4r	.	8G#XL	.	8AL	.	.	.	.	.	.	.	.	.	.	.	4FF	.	.	.	8A-L	.	8A-L	.	8AL	.	.	.	.	.
.	.	.	.	.	.	.	.	.	.	.	.	.	.	6d	.	.	.	.	.	.	.	.	.	.	.	.	.	.	.	.	.
.	.	.	.	8GnJ	.	8A#XJ	.	.	.	.	.	.	.	.	.	.	.	.	.	.	.	8GJ)	.	8GJ)	.	8B-XJ)	.	.	.	.	.
=62	=62	=62	=62	=62	=62	=62	=62	=62	=62	=62	=62	=62	=62	=62	=62	=62	=62	=62	=62	=62	=62	=62	=62	=62	=62	=62	=62	=62	=62	=62	=62
*	*	*grp:B	*grp:B	*grp:B	*grp:B	*grp:B	*grp:B	*grp:B	*grp:B	*	*	*	*	*	*	*	*	*	*	*	*	*	*	*	*	*	*	*	*	*	*
*	*	*Xtuplet	*	*Xtuplet	*	*Xtuplet	*	*Xtuplet	*	*Xtuplet	*	*Xtuplet	*	*Xtuplet	*	*	*	*	*	*	*	*	*	*	*	*	*	*	*	*	*
*	*	*	*	*	*	*	*	*	*	*	*	*^	*	*^	*	*	*	*	*	*	*	*	*	*	*	*	*	*	*	*	*
!LO:TX:a:t=arco	!	!	!	!	!	!	!	!LO:TX:a:t=[half-dot] = [half]	!	!	!	!	!	!	!	!	!	!	!	!	!	!	!	!	!	!	!	!	!	!	!	!LO:TX:a:t=[half-dot] = [half]	!
*	*	*M6/4	*	*M6/4	*	*M6/4	*	*M6/4	*	*M6/4	*	*M6/4	*	*	*M6/4	*	*	*	*	*	*	*	*	*	*	*	*	*	*	*	*	*	*
!	!	!	!	!	!	!	!	!	!	!	!	!	!	!	!LO:TX:a:t=[half-dot] = [half]	!	!	!	!	!	!	!	!	!	!	!	!	!	!	!	!	!	!
2GG-X	.	6AA^ 6En	.	6F#X^	.	6Bn	.	6r	.	6Re\	p	6F#X^	6E^	.	6c#X	3ryy	.	1r	.	2GG-X	.	1r	.	4F#X	.	4F#X	.	4En	.	1r	.	1r	.
.	.	6BB~	.	6E#X~	.	6r~	.	6A~	.	6r	.	6r	6r	.	6r	.	.	.	.	.	.	.	.	.	.	.	.	.	.	.	.	.	.
.	.	.	.	.	.	.	.	.	.	.	.	.	.	.	.	.	.	.	.	.	.	.	.	4r	.	4r	.	4r	.	.	.	.	.
.	.	6D~	.	6F##X~	.	6r~	.	6c#X~	.	6r	.	6r	6r	.	6r	6r	.	.	.	.	.	.	.	.	.	.	.	.	.	.	.	.	.
*	*	*	*	*	*	*	*	*	*	*	*	*v	*v	*	*	*	*	*	*	*	*	*	*	*	*	*	*	*	*	*	*	*	*
*	*	*	*	*	*	*	*	*	*	*	*	*	*	*v	*v	*	*	*	*	*	*	*	*	*	*	*	*	*	*	*	*	*
*	*	*	*	*	*	*	*	*	*	*	*	*	*	*Xtuplet	*	*	*	*	*	*	*	*	*	*	*	*	*	*	*	*	*
*	*	*	*	*	*	*	*	*	*	*	*	*^	*	*^	*	*	*	*	*	*	*	*	*	*	*	*	*	*	*	*	*
!	!	!	!	!	!	!	!	!	!	!	!	!	!	!	!	!LO:TX:b:t=2d	!	!	!	!	!	!	!	!	!	!	!	!	!	!	!	!	!
2FF	.	6E~	.	6A#X~	.	6r~	.	6d~	.	6r	.	6r	6r	.	3.r	6rB	.	.	.	2FF	.	.	.	2r	.	2r	.	2r	.	.	.	.	.
.	.	6Fn~	.	6B~	.	6r~	.	6c#~	.	6r	.	6r	6r	.	.	6r	.	.	.	.	.	.	.	.	.	.	.	.	.	.	.	.	.
!	!	!	!	!	!	!LO:TX:a:t=arco	!	!	!	!	!	!	!	!	!	!	!	!	!	!	!	!	!	!	!	!	!	!	!	!	!	!	!
.	.	6E^	.	6F#X^	.	6Gn^	.	6r	.	6Re\z	.	6F#^	6E^	.	.	6Gn^	.	.	.	.	.	.	.	.	.	.	.	.	.	.	.	.	.
=63	=63	=63	=63	=63	=63	=63	=63	=63	=63	=63	=63	=63	=63	=63	=63	=63	=63	=63	=63	=63	=63	=63	=63	=63	=63	=63	=63	=63	=63	=63	=63	=63	=63
2EE	.	6D#X~	.	6An~	.	6Bn~	.	3.r	.	3.r	.	3.r	3.r	.	1rff	3.rB	.	1r	.	2EE	.	1r	.	1r	.	1r	.	1r	.	1r	.	1r	.
.	.	6Dn~	.	6G#X~	.	6c#X~	.	.	.	.	.	.	.	.	.	.	.	.	.	.	.	.	.	.	.	.	.	.	.	.	.	.	.
.	.	6C#X~	.	6Gn~	.	6d~	.	.	.	.	.	.	.	.	.	.	.	.	.	.	.	.	.	.	.	.	.	.	.	.	.	.	.
2EE-X	.	6Cn~	.	6Fn~	.	6en~	.	6r	.	6r	.	6r	6r	.	.	6r	.	.	.	2EE-X	.	.	.	.	.	.	.	.	.	.	.	.	.
.	.	6D-X^	.	6G#X^	.	6r	.	6B-X^	.	6Re\z	.	6G#X^	6C#X^	.	.	6B-X^	.	.	.	.	.	.	.	.	.	.	.	.	.	.	.	.	.
.	.	6E-X	.	6A	.	6r	.	6d-X	.	6r	.	6r	6r	.	.	6r	.	.	.	.	.	.	.	.	.	.	.	.	.	.	.	.	.
=64	=64	=64	=64	=64	=64	=64	=64	=64	=64	=64	=64	=64	=64	=64	=64	=64	=64	=64	=64	=64	=64	=64	=64	=64	=64	=64	=64	=64	=64	=64	=64	=64	=64
2DD	.	6G-X	.	6Bn	.	3.r	.	6f	.	3.r	.	3.r	3r	.	3.r	3ryy	.	2DD	.	2DD	.	1r	.	1r	.	1r	.	1r	.	1r	.	1r	.
.	.	6A-X	.	6d	.	.	.	6g-X	.	.	.	.	.	.	.	.	.	.	.	.	.	.	.	.	.	.	.	.	.	.	.	.	.
.	.	6An	.	6e-X	.	.	.	6f	.	.	.	.	6ryy	.	.	6ryy	.	.	.	.	.	.	.	.	.	.	.	.	.	.	.	.	.
2DD-X	.	6G#X^	.	6B-X^	.	6Bn^	.	3.r	.	6Re\z	.	6B-X^	6A-X^	.	6c-^X	6c-^	.	2DD-X	.	2r	.	.	.	.	.	.	.	.	.	.	.	.	.
.	.	6Gn	.	6d-X	.	6d#X	.	.	.	6r	.	6r	6r	.	6r	6ryy	.	.	.	.	.	.	.	.	.	.	.	.	.	.	.	.	.
.	.	6F#X	.	6c	.	6e#X	.	.	.	6r	.	6r	6r	.	6r	6ryy	.	.	.	.	.	.	.	.	.	.	.	.	.	.	.	.	.
=65	=65	=65	=65	=65	=65	=65	=65	=65	=65	=65	=65	=65	=65	=65	=65	=65	=65	=65	=65	=65	=65	=65	=65	=65	=65	=65	=65	=65	=65	=65	=65	=65	=65
2CC	.	6Fn	.	6c-X	.	6f#X	.	6r	.	6r	.	6r	3ryy	.	6r	6ryy	.	2CC	.	1r	.	1r	.	1r	.	1r	.	1r	.	1r	.	1r	.
.	.	6E	.	6B-X	.	6g#X	.	6r	.	6r	.	6r	.	.	6r	6ryy	.	.	.	.	.	.	.	.	.	.	.	.	.	.	.	.	.
.	.	6F^	.	6cn^	.	6dn^	.	6dn^	.	6Re\z	.	6cn^	6Fn^	.	6dn^	6dn^	.	.	.	.	.	.	.	.	.	.	.	.	.	.	.	.	.
2BBB	.	6Gn	.	6d-X	.	6fn	.	6f	.	3.r	.	3r	3.r	.	3ryy	3.r	.	2BBB	.	.	.	.	.	.	.	.	.	.	.	.	.	.	.
.	.	6B-X	.	6e-X	.	6a	.	6a	.	.	.	.	.	.	.	.	.	.	.	.	.	.	.	.	.	.	.	.	.	.	.	.	.
.	.	6c	.	6g-X	.	6b-X	.	6b-X	.	.	.	6ryy	.	.	6ryy	.	.	.	.	.	.	.	.	.	.	.	.	.	.	.	.	.	.
=66	=66	=66	=66	=66	=66	=66	=66	=66	=66	=66	=66	=66	=66	=66	=66	=66	=66	=66	=66	=66	=66	=66	=66	=66	=66	=66	=66	=66	=66	=66	=66	=66	=66
2BBB-X	.	6d-X	.	6gn	.	6a	.	6a	.	6r	.	6r	6r	.	6r	6ryy	.	2BBB-X	.	1r	.	1r	.	1r	.	1r	.	1r	.	1r	.	1r	.
.	.	6c^	.	6dn^	.	6e-X^	.	6e-X^	.	6Re\z	.	6d^	6c^	.	6e-X^	6dn^	.	.	.	.	.	.	.	.	.	.	.	.	.	.	.	.	.
.	.	6Bn	.	6f	.	6g	.	6g	.	6r	.	6r	6r	.	6r	6ryy	.	.	.	.	.	.	.	.	.	.	.	.	.	.	.	.	.
2AAA	.	6B-X	.	6en	.	6a	.	6a	.	3.r	.	3r	3.r	.	3ryy	3.r	.	2AAA	.	.	.	.	.	.	.	.	.	.	.	.	.	.	.
.	.	6A	.	6e-X	.	6b-X	.	6b-X	.	.	.	.	.	.	.	.	.	.	.	.	.	.	.	.	.	.	.	.	.	.	.	.	.
.	.	6A-X	.	6d-X	.	6cc	.	6cc	.	.	.	6ryy	.	.	6ryy	.	.	.	.	.	.	.	.	.	.	.	.	.	.	.	.	.	.
*	*	*	*	*	*	*	*	*	*	*	*	*v	*v	*	*	*	*	*	*	*	*	*	*	*	*	*	*	*	*	*	*	*	*
*	*	*	*	*	*	*	*	*	*	*	*	*	*	*v	*v	*	*	*	*	*	*	*	*	*	*	*	*	*	*	*	*	*
=	=	=	=	=	=	=	=	=	=	=	=	=	=	=	=	=	=	=	=	=	=	=	=	=	=	=	=	=	=	=	=
*-	*-	*-	*-	*-	*-	*-	*-	*-	*-	*-	*-	*-	*-	*-	*-	*-	*-	*-	*-	*-	*-	*-	*-	*-	*-	*-	*-	*-	*-	*-	*-
!!!system-decoration: [s1,s2,s3s4,s5,s6,s7,s8][s9,s10]s11[s12,s13,s14,s15,s16]
!!!RDF**kern: i = editorial accidental
!!!RDF**kern: j = editorial accidental, bracket
!!!RDF**kern: Z = editorial accidental, parentheses
!!!CDT: 1892/03/10-1955/11/27
!!!CBL: Le Havre, France
!!!CDL: Paris, France
!!!CNT: Swiss, French
!!!AGN: Orchestral; Symphonic
!!!MCN: Koussevitzky, Serge
!!!MDT: 1924/05/08
!!!MGN: Orchestre de l'Opéra
!!!MLC: Paris, France
!!!MPD: 1924
!!!MPN:
!!!ODT: 1923
!!!PDT: 1924
!!!excerpt-start-measure: 51
!!!excerpt-end-measure: 66
!!!excerpt-start-time: 1:21
!!!excerpt-end-time: 1:44
!!!excerpt-duration-sec: 23
!!!excerpt-time-signature: 2/2
!!!excerpt-tempo-beat: [half]
!!!excerpt-tempo-rate: [80]
!!!excerpt-meter-type: duple
!!!excerpt-beat-group: G2
!!!excerpt-beat-subgroup: G2
!!!experiment: 1
!!!EEV: 2021/04/13
!!!ONB: Converted from MusicXML on 2020/07/28
